app/lumave-look.cube
# Lumave Look LUT — abgeleitet aus Vorher/Nachher
LUT_3D_SIZE 33
0.00304 0.00316 0.00526
0.01182 0.00316 0.00526
0.02060 0.00316 0.00526
0.03916 0.00316 0.00526
0.05772 0.00316 0.00526
0.08269 0.00316 0.00526
0.10766 0.00316 0.00526
0.13479 0.00316 0.00526
0.16192 0.00316 0.00526
0.19733 0.00316 0.00526
0.23273 0.00316 0.00526
0.27372 0.00316 0.00526
0.31472 0.00316 0.00526
0.36259 0.00316 0.00526
0.41046 0.00316 0.00526
0.46645 0.00316 0.00526
0.52245 0.00316 0.00526
0.57780 0.00316 0.00526
0.63315 0.00316 0.00526
0.68196 0.00316 0.00526
0.73078 0.00316 0.00526
0.76998 0.00316 0.00526
0.80918 0.00316 0.00526
0.83270 0.00316 0.00526
0.85623 0.00316 0.00526
0.87434 0.00316 0.00526
0.89245 0.00316 0.00526
0.90914 0.00316 0.00526
0.92583 0.00316 0.00526
0.93747 0.00316 0.00526
0.94912 0.00316 0.00526
0.96798 0.00316 0.00526
0.98685 0.00316 0.00526
0.00304 0.01196 0.00526
0.01182 0.01196 0.00526
0.02060 0.01196 0.00526
0.03916 0.01196 0.00526
0.05772 0.01196 0.00526
0.08269 0.01196 0.00526
0.10766 0.01196 0.00526
0.13479 0.01196 0.00526
0.16192 0.01196 0.00526
0.19733 0.01196 0.00526
0.23273 0.01196 0.00526
0.27372 0.01196 0.00526
0.31472 0.01196 0.00526
0.36259 0.01196 0.00526
0.41046 0.01196 0.00526
0.46645 0.01196 0.00526
0.52245 0.01196 0.00526
0.57780 0.01196 0.00526
0.63315 0.01196 0.00526
0.68196 0.01196 0.00526
0.73078 0.01196 0.00526
0.76998 0.01196 0.00526
0.80918 0.01196 0.00526
0.83270 0.01196 0.00526
0.85623 0.01196 0.00526
0.87434 0.01196 0.00526
0.89245 0.01196 0.00526
0.90914 0.01196 0.00526
0.92583 0.01196 0.00526
0.93747 0.01196 0.00526
0.94912 0.01196 0.00526
0.96798 0.01196 0.00526
0.98685 0.01196 0.00526
0.00304 0.02076 0.00526
0.01182 0.02076 0.00526
0.02060 0.02076 0.00526
0.03916 0.02076 0.00526
0.05772 0.02076 0.00526
0.08269 0.02076 0.00526
0.10766 0.02076 0.00526
0.13479 0.02076 0.00526
0.16192 0.02076 0.00526
0.19733 0.02076 0.00526
0.23273 0.02076 0.00526
0.27372 0.02076 0.00526
0.31472 0.02076 0.00526
0.36259 0.02076 0.00526
0.41046 0.02076 0.00526
0.46645 0.02076 0.00526
0.52245 0.02076 0.00526
0.57780 0.02076 0.00526
0.63315 0.02076 0.00526
0.68196 0.02076 0.00526
0.73078 0.02076 0.00526
0.76998 0.02076 0.00526
0.80918 0.02076 0.00526
0.83270 0.02076 0.00526
0.85623 0.02076 0.00526
0.87434 0.02076 0.00526
0.89245 0.02076 0.00526
0.90914 0.02076 0.00526
0.92583 0.02076 0.00526
0.93747 0.02076 0.00526
0.94912 0.02076 0.00526
0.96798 0.02076 0.00526
0.98685 0.02076 0.00526
0.00304 0.04002 0.00526
0.01182 0.04002 0.00526
0.02060 0.04002 0.00526
0.03916 0.04002 0.00526
0.05772 0.04002 0.00526
0.08269 0.04002 0.00526
0.10766 0.04002 0.00526
0.13479 0.04002 0.00526
0.16192 0.04002 0.00526
0.19733 0.04002 0.00526
0.23273 0.04002 0.00526
0.27372 0.04002 0.00526
0.31472 0.04002 0.00526
0.36259 0.04002 0.00526
0.41046 0.04002 0.00526
0.46645 0.04002 0.00526
0.52245 0.04002 0.00526
0.57780 0.04002 0.00526
0.63315 0.04002 0.00526
0.68196 0.04002 0.00526
0.73078 0.04002 0.00526
0.76998 0.04002 0.00526
0.80918 0.04002 0.00526
0.83270 0.04002 0.00526
0.85623 0.04002 0.00526
0.87434 0.04002 0.00526
0.89245 0.04002 0.00526
0.90914 0.04002 0.00526
0.92583 0.04002 0.00526
0.93747 0.04002 0.00526
0.94912 0.04002 0.00526
0.96798 0.04002 0.00526
0.98685 0.04002 0.00526
0.00304 0.05929 0.00526
0.01182 0.05929 0.00526
0.02060 0.05929 0.00526
0.03916 0.05929 0.00526
0.05772 0.05929 0.00526
0.08269 0.05929 0.00526
0.10766 0.05929 0.00526
0.13479 0.05929 0.00526
0.16192 0.05929 0.00526
0.19733 0.05929 0.00526
0.23273 0.05929 0.00526
0.27372 0.05929 0.00526
0.31472 0.05929 0.00526
0.36259 0.05929 0.00526
0.41046 0.05929 0.00526
0.46645 0.05929 0.00526
0.52245 0.05929 0.00526
0.57780 0.05929 0.00526
0.63315 0.05929 0.00526
0.68196 0.05929 0.00526
0.73078 0.05929 0.00526
0.76998 0.05929 0.00526
0.80918 0.05929 0.00526
0.83270 0.05929 0.00526
0.85623 0.05929 0.00526
0.87434 0.05929 0.00526
0.89245 0.05929 0.00526
0.90914 0.05929 0.00526
0.92583 0.05929 0.00526
0.93747 0.05929 0.00526
0.94912 0.05929 0.00526
0.96798 0.05929 0.00526
0.98685 0.05929 0.00526
0.00304 0.08285 0.00526
0.01182 0.08285 0.00526
0.02060 0.08285 0.00526
0.03916 0.08285 0.00526
0.05772 0.08285 0.00526
0.08269 0.08285 0.00526
0.10766 0.08285 0.00526
0.13479 0.08285 0.00526
0.16192 0.08285 0.00526
0.19733 0.08285 0.00526
0.23273 0.08285 0.00526
0.27372 0.08285 0.00526
0.31472 0.08285 0.00526
0.36259 0.08285 0.00526
0.41046 0.08285 0.00526
0.46645 0.08285 0.00526
0.52245 0.08285 0.00526
0.57780 0.08285 0.00526
0.63315 0.08285 0.00526
0.68196 0.08285 0.00526
0.73078 0.08285 0.00526
0.76998 0.08285 0.00526
0.80918 0.08285 0.00526
0.83270 0.08285 0.00526
0.85623 0.08285 0.00526
0.87434 0.08285 0.00526
0.89245 0.08285 0.00526
0.90914 0.08285 0.00526
0.92583 0.08285 0.00526
0.93747 0.08285 0.00526
0.94912 0.08285 0.00526
0.96798 0.08285 0.00526
0.98685 0.08285 0.00526
0.00304 0.10640 0.00526
0.01182 0.10640 0.00526
0.02060 0.10640 0.00526
0.03916 0.10640 0.00526
0.05772 0.10640 0.00526
0.08269 0.10640 0.00526
0.10766 0.10640 0.00526
0.13479 0.10640 0.00526
0.16192 0.10640 0.00526
0.19733 0.10640 0.00526
0.23273 0.10640 0.00526
0.27372 0.10640 0.00526
0.31472 0.10640 0.00526
0.36259 0.10640 0.00526
0.41046 0.10640 0.00526
0.46645 0.10640 0.00526
0.52245 0.10640 0.00526
0.57780 0.10640 0.00526
0.63315 0.10640 0.00526
0.68196 0.10640 0.00526
0.73078 0.10640 0.00526
0.76998 0.10640 0.00526
0.80918 0.10640 0.00526
0.83270 0.10640 0.00526
0.85623 0.10640 0.00526
0.87434 0.10640 0.00526
0.89245 0.10640 0.00526
0.90914 0.10640 0.00526
0.92583 0.10640 0.00526
0.93747 0.10640 0.00526
0.94912 0.10640 0.00526
0.96798 0.10640 0.00526
0.98685 0.10640 0.00526
0.00304 0.13470 0.00526
0.01182 0.13470 0.00526
0.02060 0.13470 0.00526
0.03916 0.13470 0.00526
0.05772 0.13470 0.00526
0.08269 0.13470 0.00526
0.10766 0.13470 0.00526
0.13479 0.13470 0.00526
0.16192 0.13470 0.00526
0.19733 0.13470 0.00526
0.23273 0.13470 0.00526
0.27372 0.13470 0.00526
0.31472 0.13470 0.00526
0.36259 0.13470 0.00526
0.41046 0.13470 0.00526
0.46645 0.13470 0.00526
0.52245 0.13470 0.00526
0.57780 0.13470 0.00526
0.63315 0.13470 0.00526
0.68196 0.13470 0.00526
0.73078 0.13470 0.00526
0.76998 0.13470 0.00526
0.80918 0.13470 0.00526
0.83270 0.13470 0.00526
0.85623 0.13470 0.00526
0.87434 0.13470 0.00526
0.89245 0.13470 0.00526
0.90914 0.13470 0.00526
0.92583 0.13470 0.00526
0.93747 0.13470 0.00526
0.94912 0.13470 0.00526
0.96798 0.13470 0.00526
0.98685 0.13470 0.00526
0.00304 0.16300 0.00526
0.01182 0.16300 0.00526
0.02060 0.16300 0.00526
0.03916 0.16300 0.00526
0.05772 0.16300 0.00526
0.08269 0.16300 0.00526
0.10766 0.16300 0.00526
0.13479 0.16300 0.00526
0.16192 0.16300 0.00526
0.19733 0.16300 0.00526
0.23273 0.16300 0.00526
0.27372 0.16300 0.00526
0.31472 0.16300 0.00526
0.36259 0.16300 0.00526
0.41046 0.16300 0.00526
0.46645 0.16300 0.00526
0.52245 0.16300 0.00526
0.57780 0.16300 0.00526
0.63315 0.16300 0.00526
0.68196 0.16300 0.00526
0.73078 0.16300 0.00526
0.76998 0.16300 0.00526
0.80918 0.16300 0.00526
0.83270 0.16300 0.00526
0.85623 0.16300 0.00526
0.87434 0.16300 0.00526
0.89245 0.16300 0.00526
0.90914 0.16300 0.00526
0.92583 0.16300 0.00526
0.93747 0.16300 0.00526
0.94912 0.16300 0.00526
0.96798 0.16300 0.00526
0.98685 0.16300 0.00526
0.00304 0.19850 0.00526
0.01182 0.19850 0.00526
0.02060 0.19850 0.00526
0.03916 0.19850 0.00526
0.05772 0.19850 0.00526
0.08269 0.19850 0.00526
0.10766 0.19850 0.00526
0.13479 0.19850 0.00526
0.16192 0.19850 0.00526
0.19733 0.19850 0.00526
0.23273 0.19850 0.00526
0.27372 0.19850 0.00526
0.31472 0.19850 0.00526
0.36259 0.19850 0.00526
0.41046 0.19850 0.00526
0.46645 0.19850 0.00526
0.52245 0.19850 0.00526
0.57780 0.19850 0.00526
0.63315 0.19850 0.00526
0.68196 0.19850 0.00526
0.73078 0.19850 0.00526
0.76998 0.19850 0.00526
0.80918 0.19850 0.00526
0.83270 0.19850 0.00526
0.85623 0.19850 0.00526
0.87434 0.19850 0.00526
0.89245 0.19850 0.00526
0.90914 0.19850 0.00526
0.92583 0.19850 0.00526
0.93747 0.19850 0.00526
0.94912 0.19850 0.00526
0.96798 0.19850 0.00526
0.98685 0.19850 0.00526
0.00304 0.23401 0.00526
0.01182 0.23401 0.00526
0.02060 0.23401 0.00526
0.03916 0.23401 0.00526
0.05772 0.23401 0.00526
0.08269 0.23401 0.00526
0.10766 0.23401 0.00526
0.13479 0.23401 0.00526
0.16192 0.23401 0.00526
0.19733 0.23401 0.00526
0.23273 0.23401 0.00526
0.27372 0.23401 0.00526
0.31472 0.23401 0.00526
0.36259 0.23401 0.00526
0.41046 0.23401 0.00526
0.46645 0.23401 0.00526
0.52245 0.23401 0.00526
0.57780 0.23401 0.00526
0.63315 0.23401 0.00526
0.68196 0.23401 0.00526
0.73078 0.23401 0.00526
0.76998 0.23401 0.00526
0.80918 0.23401 0.00526
0.83270 0.23401 0.00526
0.85623 0.23401 0.00526
0.87434 0.23401 0.00526
0.89245 0.23401 0.00526
0.90914 0.23401 0.00526
0.92583 0.23401 0.00526
0.93747 0.23401 0.00526
0.94912 0.23401 0.00526
0.96798 0.23401 0.00526
0.98685 0.23401 0.00526
0.00304 0.27597 0.00526
0.01182 0.27597 0.00526
0.02060 0.27597 0.00526
0.03916 0.27597 0.00526
0.05772 0.27597 0.00526
0.08269 0.27597 0.00526
0.10766 0.27597 0.00526
0.13479 0.27597 0.00526
0.16192 0.27597 0.00526
0.19733 0.27597 0.00526
0.23273 0.27597 0.00526
0.27372 0.27597 0.00526
0.31472 0.27597 0.00526
0.36259 0.27597 0.00526
0.41046 0.27597 0.00526
0.46645 0.27597 0.00526
0.52245 0.27597 0.00526
0.57780 0.27597 0.00526
0.63315 0.27597 0.00526
0.68196 0.27597 0.00526
0.73078 0.27597 0.00526
0.76998 0.27597 0.00526
0.80918 0.27597 0.00526
0.83270 0.27597 0.00526
0.85623 0.27597 0.00526
0.87434 0.27597 0.00526
0.89245 0.27597 0.00526
0.90914 0.27597 0.00526
0.92583 0.27597 0.00526
0.93747 0.27597 0.00526
0.94912 0.27597 0.00526
0.96798 0.27597 0.00526
0.98685 0.27597 0.00526
0.00304 0.31794 0.00526
0.01182 0.31794 0.00526
0.02060 0.31794 0.00526
0.03916 0.31794 0.00526
0.05772 0.31794 0.00526
0.08269 0.31794 0.00526
0.10766 0.31794 0.00526
0.13479 0.31794 0.00526
0.16192 0.31794 0.00526
0.19733 0.31794 0.00526
0.23273 0.31794 0.00526
0.27372 0.31794 0.00526
0.31472 0.31794 0.00526
0.36259 0.31794 0.00526
0.41046 0.31794 0.00526
0.46645 0.31794 0.00526
0.52245 0.31794 0.00526
0.57780 0.31794 0.00526
0.63315 0.31794 0.00526
0.68196 0.31794 0.00526
0.73078 0.31794 0.00526
0.76998 0.31794 0.00526
0.80918 0.31794 0.00526
0.83270 0.31794 0.00526
0.85623 0.31794 0.00526
0.87434 0.31794 0.00526
0.89245 0.31794 0.00526
0.90914 0.31794 0.00526
0.92583 0.31794 0.00526
0.93747 0.31794 0.00526
0.94912 0.31794 0.00526
0.96798 0.31794 0.00526
0.98685 0.31794 0.00526
0.00304 0.36596 0.00526
0.01182 0.36596 0.00526
0.02060 0.36596 0.00526
0.03916 0.36596 0.00526
0.05772 0.36596 0.00526
0.08269 0.36596 0.00526
0.10766 0.36596 0.00526
0.13479 0.36596 0.00526
0.16192 0.36596 0.00526
0.19733 0.36596 0.00526
0.23273 0.36596 0.00526
0.27372 0.36596 0.00526
0.31472 0.36596 0.00526
0.36259 0.36596 0.00526
0.41046 0.36596 0.00526
0.46645 0.36596 0.00526
0.52245 0.36596 0.00526
0.57780 0.36596 0.00526
0.63315 0.36596 0.00526
0.68196 0.36596 0.00526
0.73078 0.36596 0.00526
0.76998 0.36596 0.00526
0.80918 0.36596 0.00526
0.83270 0.36596 0.00526
0.85623 0.36596 0.00526
0.87434 0.36596 0.00526
0.89245 0.36596 0.00526
0.90914 0.36596 0.00526
0.92583 0.36596 0.00526
0.93747 0.36596 0.00526
0.94912 0.36596 0.00526
0.96798 0.36596 0.00526
0.98685 0.36596 0.00526
0.00304 0.41399 0.00526
0.01182 0.41399 0.00526
0.02060 0.41399 0.00526
0.03916 0.41399 0.00526
0.05772 0.41399 0.00526
0.08269 0.41399 0.00526
0.10766 0.41399 0.00526
0.13479 0.41399 0.00526
0.16192 0.41399 0.00526
0.19733 0.41399 0.00526
0.23273 0.41399 0.00526
0.27372 0.41399 0.00526
0.31472 0.41399 0.00526
0.36259 0.41399 0.00526
0.41046 0.41399 0.00526
0.46645 0.41399 0.00526
0.52245 0.41399 0.00526
0.57780 0.41399 0.00526
0.63315 0.41399 0.00526
0.68196 0.41399 0.00526
0.73078 0.41399 0.00526
0.76998 0.41399 0.00526
0.80918 0.41399 0.00526
0.83270 0.41399 0.00526
0.85623 0.41399 0.00526
0.87434 0.41399 0.00526
0.89245 0.41399 0.00526
0.90914 0.41399 0.00526
0.92583 0.41399 0.00526
0.93747 0.41399 0.00526
0.94912 0.41399 0.00526
0.96798 0.41399 0.00526
0.98685 0.41399 0.00526
0.00304 0.46613 0.00526
0.01182 0.46613 0.00526
0.02060 0.46613 0.00526
0.03916 0.46613 0.00526
0.05772 0.46613 0.00526
0.08269 0.46613 0.00526
0.10766 0.46613 0.00526
0.13479 0.46613 0.00526
0.16192 0.46613 0.00526
0.19733 0.46613 0.00526
0.23273 0.46613 0.00526
0.27372 0.46613 0.00526
0.31472 0.46613 0.00526
0.36259 0.46613 0.00526
0.41046 0.46613 0.00526
0.46645 0.46613 0.00526
0.52245 0.46613 0.00526
0.57780 0.46613 0.00526
0.63315 0.46613 0.00526
0.68196 0.46613 0.00526
0.73078 0.46613 0.00526
0.76998 0.46613 0.00526
0.80918 0.46613 0.00526
0.83270 0.46613 0.00526
0.85623 0.46613 0.00526
0.87434 0.46613 0.00526
0.89245 0.46613 0.00526
0.90914 0.46613 0.00526
0.92583 0.46613 0.00526
0.93747 0.46613 0.00526
0.94912 0.46613 0.00526
0.96798 0.46613 0.00526
0.98685 0.46613 0.00526
0.00304 0.51826 0.00526
0.01182 0.51826 0.00526
0.02060 0.51826 0.00526
0.03916 0.51826 0.00526
0.05772 0.51826 0.00526
0.08269 0.51826 0.00526
0.10766 0.51826 0.00526
0.13479 0.51826 0.00526
0.16192 0.51826 0.00526
0.19733 0.51826 0.00526
0.23273 0.51826 0.00526
0.27372 0.51826 0.00526
0.31472 0.51826 0.00526
0.36259 0.51826 0.00526
0.41046 0.51826 0.00526
0.46645 0.51826 0.00526
0.52245 0.51826 0.00526
0.57780 0.51826 0.00526
0.63315 0.51826 0.00526
0.68196 0.51826 0.00526
0.73078 0.51826 0.00526
0.76998 0.51826 0.00526
0.80918 0.51826 0.00526
0.83270 0.51826 0.00526
0.85623 0.51826 0.00526
0.87434 0.51826 0.00526
0.89245 0.51826 0.00526
0.90914 0.51826 0.00526
0.92583 0.51826 0.00526
0.93747 0.51826 0.00526
0.94912 0.51826 0.00526
0.96798 0.51826 0.00526
0.98685 0.51826 0.00526
0.00304 0.56541 0.00526
0.01182 0.56541 0.00526
0.02060 0.56541 0.00526
0.03916 0.56541 0.00526
0.05772 0.56541 0.00526
0.08269 0.56541 0.00526
0.10766 0.56541 0.00526
0.13479 0.56541 0.00526
0.16192 0.56541 0.00526
0.19733 0.56541 0.00526
0.23273 0.56541 0.00526
0.27372 0.56541 0.00526
0.31472 0.56541 0.00526
0.36259 0.56541 0.00526
0.41046 0.56541 0.00526
0.46645 0.56541 0.00526
0.52245 0.56541 0.00526
0.57780 0.56541 0.00526
0.63315 0.56541 0.00526
0.68196 0.56541 0.00526
0.73078 0.56541 0.00526
0.76998 0.56541 0.00526
0.80918 0.56541 0.00526
0.83270 0.56541 0.00526
0.85623 0.56541 0.00526
0.87434 0.56541 0.00526
0.89245 0.56541 0.00526
0.90914 0.56541 0.00526
0.92583 0.56541 0.00526
0.93747 0.56541 0.00526
0.94912 0.56541 0.00526
0.96798 0.56541 0.00526
0.98685 0.56541 0.00526
0.00304 0.61255 0.00526
0.01182 0.61255 0.00526
0.02060 0.61255 0.00526
0.03916 0.61255 0.00526
0.05772 0.61255 0.00526
0.08269 0.61255 0.00526
0.10766 0.61255 0.00526
0.13479 0.61255 0.00526
0.16192 0.61255 0.00526
0.19733 0.61255 0.00526
0.23273 0.61255 0.00526
0.27372 0.61255 0.00526
0.31472 0.61255 0.00526
0.36259 0.61255 0.00526
0.41046 0.61255 0.00526
0.46645 0.61255 0.00526
0.52245 0.61255 0.00526
0.57780 0.61255 0.00526
0.63315 0.61255 0.00526
0.68196 0.61255 0.00526
0.73078 0.61255 0.00526
0.76998 0.61255 0.00526
0.80918 0.61255 0.00526
0.83270 0.61255 0.00526
0.85623 0.61255 0.00526
0.87434 0.61255 0.00526
0.89245 0.61255 0.00526
0.90914 0.61255 0.00526
0.92583 0.61255 0.00526
0.93747 0.61255 0.00526
0.94912 0.61255 0.00526
0.96798 0.61255 0.00526
0.98685 0.61255 0.00526
0.00304 0.65194 0.00526
0.01182 0.65194 0.00526
0.02060 0.65194 0.00526
0.03916 0.65194 0.00526
0.05772 0.65194 0.00526
0.08269 0.65194 0.00526
0.10766 0.65194 0.00526
0.13479 0.65194 0.00526
0.16192 0.65194 0.00526
0.19733 0.65194 0.00526
0.23273 0.65194 0.00526
0.27372 0.65194 0.00526
0.31472 0.65194 0.00526
0.36259 0.65194 0.00526
0.41046 0.65194 0.00526
0.46645 0.65194 0.00526
0.52245 0.65194 0.00526
0.57780 0.65194 0.00526
0.63315 0.65194 0.00526
0.68196 0.65194 0.00526
0.73078 0.65194 0.00526
0.76998 0.65194 0.00526
0.80918 0.65194 0.00526
0.83270 0.65194 0.00526
0.85623 0.65194 0.00526
0.87434 0.65194 0.00526
0.89245 0.65194 0.00526
0.90914 0.65194 0.00526
0.92583 0.65194 0.00526
0.93747 0.65194 0.00526
0.94912 0.65194 0.00526
0.96798 0.65194 0.00526
0.98685 0.65194 0.00526
0.00304 0.69133 0.00526
0.01182 0.69133 0.00526
0.02060 0.69133 0.00526
0.03916 0.69133 0.00526
0.05772 0.69133 0.00526
0.08269 0.69133 0.00526
0.10766 0.69133 0.00526
0.13479 0.69133 0.00526
0.16192 0.69133 0.00526
0.19733 0.69133 0.00526
0.23273 0.69133 0.00526
0.27372 0.69133 0.00526
0.31472 0.69133 0.00526
0.36259 0.69133 0.00526
0.41046 0.69133 0.00526
0.46645 0.69133 0.00526
0.52245 0.69133 0.00526
0.57780 0.69133 0.00526
0.63315 0.69133 0.00526
0.68196 0.69133 0.00526
0.73078 0.69133 0.00526
0.76998 0.69133 0.00526
0.80918 0.69133 0.00526
0.83270 0.69133 0.00526
0.85623 0.69133 0.00526
0.87434 0.69133 0.00526
0.89245 0.69133 0.00526
0.90914 0.69133 0.00526
0.92583 0.69133 0.00526
0.93747 0.69133 0.00526
0.94912 0.69133 0.00526
0.96798 0.69133 0.00526
0.98685 0.69133 0.00526
0.00304 0.73097 0.00526
0.01182 0.73097 0.00526
0.02060 0.73097 0.00526
0.03916 0.73097 0.00526
0.05772 0.73097 0.00526
0.08269 0.73097 0.00526
0.10766 0.73097 0.00526
0.13479 0.73097 0.00526
0.16192 0.73097 0.00526
0.19733 0.73097 0.00526
0.23273 0.73097 0.00526
0.27372 0.73097 0.00526
0.31472 0.73097 0.00526
0.36259 0.73097 0.00526
0.41046 0.73097 0.00526
0.46645 0.73097 0.00526
0.52245 0.73097 0.00526
0.57780 0.73097 0.00526
0.63315 0.73097 0.00526
0.68196 0.73097 0.00526
0.73078 0.73097 0.00526
0.76998 0.73097 0.00526
0.80918 0.73097 0.00526
0.83270 0.73097 0.00526
0.85623 0.73097 0.00526
0.87434 0.73097 0.00526
0.89245 0.73097 0.00526
0.90914 0.73097 0.00526
0.92583 0.73097 0.00526
0.93747 0.73097 0.00526
0.94912 0.73097 0.00526
0.96798 0.73097 0.00526
0.98685 0.73097 0.00526
0.00304 0.77062 0.00526
0.01182 0.77062 0.00526
0.02060 0.77062 0.00526
0.03916 0.77062 0.00526
0.05772 0.77062 0.00526
0.08269 0.77062 0.00526
0.10766 0.77062 0.00526
0.13479 0.77062 0.00526
0.16192 0.77062 0.00526
0.19733 0.77062 0.00526
0.23273 0.77062 0.00526
0.27372 0.77062 0.00526
0.31472 0.77062 0.00526
0.36259 0.77062 0.00526
0.41046 0.77062 0.00526
0.46645 0.77062 0.00526
0.52245 0.77062 0.00526
0.57780 0.77062 0.00526
0.63315 0.77062 0.00526
0.68196 0.77062 0.00526
0.73078 0.77062 0.00526
0.76998 0.77062 0.00526
0.80918 0.77062 0.00526
0.83270 0.77062 0.00526
0.85623 0.77062 0.00526
0.87434 0.77062 0.00526
0.89245 0.77062 0.00526
0.90914 0.77062 0.00526
0.92583 0.77062 0.00526
0.93747 0.77062 0.00526
0.94912 0.77062 0.00526
0.96798 0.77062 0.00526
0.98685 0.77062 0.00526
0.00304 0.80221 0.00526
0.01182 0.80221 0.00526
0.02060 0.80221 0.00526
0.03916 0.80221 0.00526
0.05772 0.80221 0.00526
0.08269 0.80221 0.00526
0.10766 0.80221 0.00526
0.13479 0.80221 0.00526
0.16192 0.80221 0.00526
0.19733 0.80221 0.00526
0.23273 0.80221 0.00526
0.27372 0.80221 0.00526
0.31472 0.80221 0.00526
0.36259 0.80221 0.00526
0.41046 0.80221 0.00526
0.46645 0.80221 0.00526
0.52245 0.80221 0.00526
0.57780 0.80221 0.00526
0.63315 0.80221 0.00526
0.68196 0.80221 0.00526
0.73078 0.80221 0.00526
0.76998 0.80221 0.00526
0.80918 0.80221 0.00526
0.83270 0.80221 0.00526
0.85623 0.80221 0.00526
0.87434 0.80221 0.00526
0.89245 0.80221 0.00526
0.90914 0.80221 0.00526
0.92583 0.80221 0.00526
0.93747 0.80221 0.00526
0.94912 0.80221 0.00526
0.96798 0.80221 0.00526
0.98685 0.80221 0.00526
0.00304 0.83380 0.00526
0.01182 0.83380 0.00526
0.02060 0.83380 0.00526
0.03916 0.83380 0.00526
0.05772 0.83380 0.00526
0.08269 0.83380 0.00526
0.10766 0.83380 0.00526
0.13479 0.83380 0.00526
0.16192 0.83380 0.00526
0.19733 0.83380 0.00526
0.23273 0.83380 0.00526
0.27372 0.83380 0.00526
0.31472 0.83380 0.00526
0.36259 0.83380 0.00526
0.41046 0.83380 0.00526
0.46645 0.83380 0.00526
0.52245 0.83380 0.00526
0.57780 0.83380 0.00526
0.63315 0.83380 0.00526
0.68196 0.83380 0.00526
0.73078 0.83380 0.00526
0.76998 0.83380 0.00526
0.80918 0.83380 0.00526
0.83270 0.83380 0.00526
0.85623 0.83380 0.00526
0.87434 0.83380 0.00526
0.89245 0.83380 0.00526
0.90914 0.83380 0.00526
0.92583 0.83380 0.00526
0.93747 0.83380 0.00526
0.94912 0.83380 0.00526
0.96798 0.83380 0.00526
0.98685 0.83380 0.00526
0.00304 0.85915 0.00526
0.01182 0.85915 0.00526
0.02060 0.85915 0.00526
0.03916 0.85915 0.00526
0.05772 0.85915 0.00526
0.08269 0.85915 0.00526
0.10766 0.85915 0.00526
0.13479 0.85915 0.00526
0.16192 0.85915 0.00526
0.19733 0.85915 0.00526
0.23273 0.85915 0.00526
0.27372 0.85915 0.00526
0.31472 0.85915 0.00526
0.36259 0.85915 0.00526
0.41046 0.85915 0.00526
0.46645 0.85915 0.00526
0.52245 0.85915 0.00526
0.57780 0.85915 0.00526
0.63315 0.85915 0.00526
0.68196 0.85915 0.00526
0.73078 0.85915 0.00526
0.76998 0.85915 0.00526
0.80918 0.85915 0.00526
0.83270 0.85915 0.00526
0.85623 0.85915 0.00526
0.87434 0.85915 0.00526
0.89245 0.85915 0.00526
0.90914 0.85915 0.00526
0.92583 0.85915 0.00526
0.93747 0.85915 0.00526
0.94912 0.85915 0.00526
0.96798 0.85915 0.00526
0.98685 0.85915 0.00526
0.00304 0.88450 0.00526
0.01182 0.88450 0.00526
0.02060 0.88450 0.00526
0.03916 0.88450 0.00526
0.05772 0.88450 0.00526
0.08269 0.88450 0.00526
0.10766 0.88450 0.00526
0.13479 0.88450 0.00526
0.16192 0.88450 0.00526
0.19733 0.88450 0.00526
0.23273 0.88450 0.00526
0.27372 0.88450 0.00526
0.31472 0.88450 0.00526
0.36259 0.88450 0.00526
0.41046 0.88450 0.00526
0.46645 0.88450 0.00526
0.52245 0.88450 0.00526
0.57780 0.88450 0.00526
0.63315 0.88450 0.00526
0.68196 0.88450 0.00526
0.73078 0.88450 0.00526
0.76998 0.88450 0.00526
0.80918 0.88450 0.00526
0.83270 0.88450 0.00526
0.85623 0.88450 0.00526
0.87434 0.88450 0.00526
0.89245 0.88450 0.00526
0.90914 0.88450 0.00526
0.92583 0.88450 0.00526
0.93747 0.88450 0.00526
0.94912 0.88450 0.00526
0.96798 0.88450 0.00526
0.98685 0.88450 0.00526
0.00304 0.90496 0.00526
0.01182 0.90496 0.00526
0.02060 0.90496 0.00526
0.03916 0.90496 0.00526
0.05772 0.90496 0.00526
0.08269 0.90496 0.00526
0.10766 0.90496 0.00526
0.13479 0.90496 0.00526
0.16192 0.90496 0.00526
