app/lumave-look.cube
# Lumave Look LUT — abgeleitet aus Vorher/Nachher
LUT_3D_SIZE 5
0.00304 0.00316 0.00526
0.16192 0.00316 0.00526
0.52245 0.00316 0.00526
0.85623 0.00316 0.00526
0.98685 0.00316 0.00526
0.00304 0.16300 0.00526
0.16192 0.16300 0.00526
0.52245 0.16300 0.00526
0.85623 0.16300 0.00526
0.98685 0.16300 0.00526
0.00304 0.51826 0.00526
0.16192 0.51826 0.00526
0.52245 0.51826 0.00526
0.85623 0.51826 0.00526
0.98685 0.51826 0.00526
0.00304 0.83380 0.00526
0.16192 0.83380 0.00526
0.52245 0.83380 0.00526
0.85623 0.83380 0.00526
0.98685 0.83380 0.00526
0.00304 0.98809 0.00526
0.16192 0.98809 0.00526
0.52245 0.98809 0.00526
0.85623 0.98809 0.00526
0.98685 0.98809 0.00526
0.00304 0.00316 0.14663
0.16192 0.00316 0.14663
0.52245 0.00316 0.14663
0.85623 0.00316 0.14663
0.98685 0.00316 0.14663
0.00304 0.16300 0.14663
0.16192 0.16300 0.14663
0.52245 0.16300 0.14663
0.85623 0.16300 0.14663
0.98685 0.16300 0.14663
0.00304 0.51826 0.14663
0.16192 0.51826 0.14663
0.52245 0.51826 0.14663
0.85623 0.51826 0.14663
0.98685 0.51826 0.14663
0.00304 0.83380 0.14663
0.16192 0.83380 0.14663
0.52245 0.83380 0.14663
0.85623 0.83380 0.14663
0.98685 0.83380 0.14663
0.00304 0.98809 0.14663
0.16192 0.98809 0.14663
0.52245 0.98809 0.14663
0.85623 0.98809 0.14663
0.98685 0.98809 0.14663
0.00304 0.00316 0.50472
0.16192 0.00316 0.50472
0.52245 0.00316 0.50472
0.85623 0.00316 0.50472
0.98685 0.00316 0.50472
0.00304 0.16300 0.50472
0.16192 0.16300 0.50472
0.52245 0.16300 0.50472
0.85623 0.16300 0.50472
0.98685 0.16300 0.50472
0.00304 0.51826 0.50472
0.16192 0.51826 0.50472
0.52245 0.51826 0.50472
0.85623 0.51826 0.50472
0.98685 0.51826 0.50472
0.00304 0.83380 0.50472
0.16192 0.83380 0.50472
0.52245 0.83380 0.50472
0.85623 0.83380 0.50472
0.98685 0.83380 0.50472
0.00304 0.98809 0.50472
0.16192 0.98809 0.50472
0.52245 0.98809 0.50472
0.85623 0.98809 0.50472
0.98685 0.98809 0.50472
0.00304 0.00316 0.83449
0.16192 0.00316 0.83449
0.52245 0.00316 0.83449
0.85623 0.00316 0.83449
0.98685 0.00316 0.83449
0.00304 0.16300 0.83449
0.16192 0.16300 0.83449
0.52245 0.16300 0.83449
0.85623 0.16300 0.83449
0.98685 0.16300 0.83449
0.00304 0.51826 0.83449
0.16192 0.51826 0.83449
0.52245 0.51826 0.83449
0.85623 0.51826 0.83449
0.98685 0.51826 0.83449
0.00304 0.83380 0.83449
0.16192 0.83380 0.83449
0.52245 0.83380 0.83449
0.85623 0.83380 0.83449
0.98685 0.83380 0.83449
0.00304 0.98809 0.83449
0.16192 0.98809 0.83449
0.52245 0.98809 0.83449
0.85623 0.98809 0.83449
0.98685 0.98809 0.83449
0.00304 0.00316 0.98627
0.16192 0.00316 0.98627
0.52245 0.00316 0.98627
0.85623 0.00316 0.98627
0.98685 0.00316 0.98627
0.00304 0.16300 0.98627
0.16192 0.16300 0.98627
0.52245 0.16300 0.98627
0.85623 0.16300 0.98627
0.98685 0.16300 0.98627
0.00304 0.51826 0.98627
0.16192 0.51826 0.98627
0.52245 0.51826 0.98627
0.85623 0.51826 0.98627
0.98685 0.51826 0.98627
0.00304 0.83380 0.98627
0.16192 0.83380 0.98627
0.52245 0.83380 0.98627
0.85623 0.83380 0.98627
0.98685 0.83380 0.98627
0.00304 0.98809 0.98627
0.16192 0.98809 0.98627
0.52245 0.98809 0.98627
0.85623 0.98809 0.98627
0.98685 0.98809 0.98627
