app/lumave-look.cube
# Lumave Look LUT — abgeleitet aus Vorher/Nachher
LUT_3D_SIZE 9
0.00304 0.00316 0.00526
0.05772 0.00316 0.00526
0.16192 0.00316 0.00526
0.31472 0.00316 0.00526
0.52245 0.00316 0.00526
0.73078 0.00316 0.00526
0.85623 0.00316 0.00526
0.92583 0.00316 0.00526
0.98685 0.00316 0.00526
0.00304 0.05929 0.00526
0.05772 0.05929 0.00526
0.16192 0.05929 0.00526
0.31472 0.05929 0.00526
0.52245 0.05929 0.00526
0.73078 0.05929 0.00526
0.85623 0.05929 0.00526
0.92583 0.05929 0.00526
0.98685 0.05929 0.00526
0.00304 0.16300 0.00526
0.05772 0.16300 0.00526
0.16192 0.16300 0.00526
0.31472 0.16300 0.00526
0.52245 0.16300 0.00526
0.73078 0.16300 0.00526
0.85623 0.16300 0.00526
0.92583 0.16300 0.00526
0.98685 0.16300 0.00526
0.00304 0.31794 0.00526
0.05772 0.31794 0.00526
0.16192 0.31794 0.00526
0.31472 0.31794 0.00526
0.52245 0.31794 0.00526
0.73078 0.31794 0.00526
0.85623 0.31794 0.00526
0.92583 0.31794 0.00526
0.98685 0.31794 0.00526
0.00304 0.51826 0.00526
0.05772 0.51826 0.00526
0.16192 0.51826 0.00526
0.31472 0.51826 0.00526
0.52245 0.51826 0.00526
0.73078 0.51826 0.00526
0.85623 0.51826 0.00526
0.92583 0.51826 0.00526
0.98685 0.51826 0.00526
0.00304 0.69133 0.00526
0.05772 0.69133 0.00526
0.16192 0.69133 0.00526
0.31472 0.69133 0.00526
0.52245 0.69133 0.00526
0.73078 0.69133 0.00526
0.85623 0.69133 0.00526
0.92583 0.69133 0.00526
0.98685 0.69133 0.00526
0.00304 0.83380 0.00526
0.05772 0.83380 0.00526
0.16192 0.83380 0.00526
0.31472 0.83380 0.00526
0.52245 0.83380 0.00526
0.73078 0.83380 0.00526
0.85623 0.83380 0.00526
0.92583 0.83380 0.00526
0.98685 0.83380 0.00526
0.00304 0.92541 0.00526
0.05772 0.92541 0.00526
0.16192 0.92541 0.00526
0.31472 0.92541 0.00526
0.52245 0.92541 0.00526
0.73078 0.92541 0.00526
0.85623 0.92541 0.00526
0.92583 0.92541 0.00526
0.98685 0.92541 0.00526
0.00304 0.98809 0.00526
0.05772 0.98809 0.00526
0.16192 0.98809 0.00526
0.31472 0.98809 0.00526
0.52245 0.98809 0.00526
0.73078 0.98809 0.00526
0.85623 0.98809 0.00526
0.92583 0.98809 0.00526
0.98685 0.98809 0.00526
0.00304 0.00316 0.05260
0.05772 0.00316 0.05260
0.16192 0.00316 0.05260
0.31472 0.00316 0.05260
0.52245 0.00316 0.05260
0.73078 0.00316 0.05260
0.85623 0.00316 0.05260
0.92583 0.00316 0.05260
0.98685 0.00316 0.05260
0.00304 0.05929 0.05260
0.05772 0.05929 0.05260
0.16192 0.05929 0.05260
0.31472 0.05929 0.05260
0.52245 0.05929 0.05260
0.73078 0.05929 0.05260
0.85623 0.05929 0.05260
0.92583 0.05929 0.05260
0.98685 0.05929 0.05260
0.00304 0.16300 0.05260
0.05772 0.16300 0.05260
0.16192 0.16300 0.05260
0.31472 0.16300 0.05260
0.52245 0.16300 0.05260
0.73078 0.16300 0.05260
0.85623 0.16300 0.05260
0.92583 0.16300 0.05260
0.98685 0.16300 0.05260
0.00304 0.31794 0.05260
0.05772 0.31794 0.05260
0.16192 0.31794 0.05260
0.31472 0.31794 0.05260
0.52245 0.31794 0.05260
0.73078 0.31794 0.05260
0.85623 0.31794 0.05260
0.92583 0.31794 0.05260
0.98685 0.31794 0.05260
0.00304 0.51826 0.05260
0.05772 0.51826 0.05260
0.16192 0.51826 0.05260
0.31472 0.51826 0.05260
0.52245 0.51826 0.05260
0.73078 0.51826 0.05260
0.85623 0.51826 0.05260
0.92583 0.51826 0.05260
0.98685 0.51826 0.05260
0.00304 0.69133 0.05260
0.05772 0.69133 0.05260
0.16192 0.69133 0.05260
0.31472 0.69133 0.05260
0.52245 0.69133 0.05260
0.73078 0.69133 0.05260
0.85623 0.69133 0.05260
0.92583 0.69133 0.05260
0.98685 0.69133 0.05260
0.00304 0.83380 0.05260
0.05772 0.83380 0.05260
0.16192 0.83380 0.05260
0.31472 0.83380 0.05260
0.52245 0.83380 0.05260
0.73078 0.83380 0.05260
0.85623 0.83380 0.05260
0.92583 0.83380 0.05260
0.98685 0.83380 0.05260
0.00304 0.92541 0.05260
0.05772 0.92541 0.05260
0.16192 0.92541 0.05260
0.31472 0.92541 0.05260
0.52245 0.92541 0.05260
0.73078 0.92541 0.05260
0.85623 0.92541 0.05260
0.92583 0.92541 0.05260
0.98685 0.92541 0.05260
0.00304 0.98809 0.05260
0.05772 0.98809 0.05260
0.16192 0.98809 0.05260
0.31472 0.98809 0.05260
0.52245 0.98809 0.05260
0.73078 0.98809 0.05260
0.85623 0.98809 0.05260
0.92583 0.98809 0.05260
0.98685 0.98809 0.05260
0.00304 0.00316 0.14663
0.05772 0.00316 0.14663
0.16192 0.00316 0.14663
0.31472 0.00316 0.14663
0.52245 0.00316 0.14663
0.73078 0.00316 0.14663
0.85623 0.00316 0.14663
0.92583 0.00316 0.14663
0.98685 0.00316 0.14663
0.00304 0.05929 0.14663
0.05772 0.05929 0.14663
0.16192 0.05929 0.14663
0.31472 0.05929 0.14663
0.52245 0.05929 0.14663
0.73078 0.05929 0.14663
0.85623 0.05929 0.14663
0.92583 0.05929 0.14663
0.98685 0.05929 0.14663
0.00304 0.16300 0.14663
0.05772 0.16300 0.14663
0.16192 0.16300 0.14663
0.31472 0.16300 0.14663
0.52245 0.16300 0.14663
0.73078 0.16300 0.14663
0.85623 0.16300 0.14663
0.92583 0.16300 0.14663
0.98685 0.16300 0.14663
0.00304 0.31794 0.14663
0.05772 0.31794 0.14663
0.16192 0.31794 0.14663
0.31472 0.31794 0.14663
0.52245 0.31794 0.14663
0.73078 0.31794 0.14663
0.85623 0.31794 0.14663
0.92583 0.31794 0.14663
0.98685 0.31794 0.14663
0.00304 0.51826 0.14663
0.05772 0.51826 0.14663
0.16192 0.51826 0.14663
0.31472 0.51826 0.14663
0.52245 0.51826 0.14663
0.73078 0.51826 0.14663
0.85623 0.51826 0.14663
0.92583 0.51826 0.14663
0.98685 0.51826 0.14663
0.00304 0.69133 0.14663
0.05772 0.69133 0.14663
0.16192 0.69133 0.14663
0.31472 0.69133 0.14663
0.52245 0.69133 0.14663
0.73078 0.69133 0.14663
0.85623 0.69133 0.14663
0.92583 0.69133 0.14663
0.98685 0.69133 0.14663
0.00304 0.83380 0.14663
0.05772 0.83380 0.14663
0.16192 0.83380 0.14663
0.31472 0.83380 0.14663
0.52245 0.83380 0.14663
0.73078 0.83380 0.14663
0.85623 0.83380 0.14663
0.92583 0.83380 0.14663
0.98685 0.83380 0.14663
0.00304 0.92541 0.14663
0.05772 0.92541 0.14663
0.16192 0.92541 0.14663
0.31472 0.92541 0.14663
0.52245 0.92541 0.14663
0.73078 0.92541 0.14663
0.85623 0.92541 0.14663
0.92583 0.92541 0.14663
0.98685 0.92541 0.14663
0.00304 0.98809 0.14663
0.05772 0.98809 0.14663
0.16192 0.98809 0.14663
0.31472 0.98809 0.14663
0.52245 0.98809 0.14663
0.73078 0.98809 0.14663
0.85623 0.98809 0.14663
0.92583 0.98809 0.14663
0.98685 0.98809 0.14663
0.00304 0.00316 0.29370
0.05772 0.00316 0.29370
0.16192 0.00316 0.29370
0.31472 0.00316 0.29370
0.52245 0.00316 0.29370
0.73078 0.00316 0.29370
0.85623 0.00316 0.29370
0.92583 0.00316 0.29370
0.98685 0.00316 0.29370
0.00304 0.05929 0.29370
0.05772 0.05929 0.29370
0.16192 0.05929 0.29370
0.31472 0.05929 0.29370
0.52245 0.05929 0.29370
0.73078 0.05929 0.29370
0.85623 0.05929 0.29370
0.92583 0.05929 0.29370
0.98685 0.05929 0.29370
0.00304 0.16300 0.29370
0.05772 0.16300 0.29370
0.16192 0.16300 0.29370
0.31472 0.16300 0.29370
0.52245 0.16300 0.29370
0.73078 0.16300 0.29370
0.85623 0.16300 0.29370
0.92583 0.16300 0.29370
0.98685 0.16300 0.29370
0.00304 0.31794 0.29370
0.05772 0.31794 0.29370
0.16192 0.31794 0.29370
0.31472 0.31794 0.29370
0.52245 0.31794 0.29370
0.73078 0.31794 0.29370
0.85623 0.31794 0.29370
0.92583 0.31794 0.29370
0.98685 0.31794 0.29370
0.00304 0.51826 0.29370
0.05772 0.51826 0.29370
0.16192 0.51826 0.29370
0.31472 0.51826 0.29370
0.52245 0.51826 0.29370
0.73078 0.51826 0.29370
0.85623 0.51826 0.29370
0.92583 0.51826 0.29370
0.98685 0.51826 0.29370
0.00304 0.69133 0.29370
0.05772 0.69133 0.29370
0.16192 0.69133 0.29370
0.31472 0.69133 0.29370
0.52245 0.69133 0.29370
0.73078 0.69133 0.29370
0.85623 0.69133 0.29370
0.92583 0.69133 0.29370
0.98685 0.69133 0.29370
0.00304 0.83380 0.29370
0.05772 0.83380 0.29370
0.16192 0.83380 0.29370
0.31472 0.83380 0.29370
0.52245 0.83380 0.29370
0.73078 0.83380 0.29370
0.85623 0.83380 0.29370
0.92583 0.83380 0.29370
0.98685 0.83380 0.29370
0.00304 0.92541 0.29370
0.05772 0.92541 0.29370
0.16192 0.92541 0.29370
0.31472 0.92541 0.29370
0.52245 0.92541 0.29370
0.73078 0.92541 0.29370
0.85623 0.92541 0.29370
0.92583 0.92541 0.29370
0.98685 0.92541 0.29370
0.00304 0.98809 0.29370
0.05772 0.98809 0.29370
0.16192 0.98809 0.29370
0.31472 0.98809 0.29370
0.52245 0.98809 0.29370
0.73078 0.98809 0.29370
0.85623 0.98809 0.29370
0.92583 0.98809 0.29370
0.98685 0.98809 0.29370
0.00304 0.00316 0.50472
0.05772 0.00316 0.50472
0.16192 0.00316 0.50472
0.31472 0.00316 0.50472
0.52245 0.00316 0.50472
0.73078 0.00316 0.50472
0.85623 0.00316 0.50472
0.92583 0.00316 0.50472
0.98685 0.00316 0.50472
0.00304 0.05929 0.50472
0.05772 0.05929 0.50472
0.16192 0.05929 0.50472
0.31472 0.05929 0.50472
0.52245 0.05929 0.50472
0.73078 0.05929 0.50472
0.85623 0.05929 0.50472
0.92583 0.05929 0.50472
0.98685 0.05929 0.50472
0.00304 0.16300 0.50472
0.05772 0.16300 0.50472
0.16192 0.16300 0.50472
0.31472 0.16300 0.50472
0.52245 0.16300 0.50472
0.73078 0.16300 0.50472
0.85623 0.16300 0.50472
0.92583 0.16300 0.50472
0.98685 0.16300 0.50472
0.00304 0.31794 0.50472
0.05772 0.31794 0.50472
0.16192 0.31794 0.50472
0.31472 0.31794 0.50472
0.52245 0.31794 0.50472
0.73078 0.31794 0.50472
0.85623 0.31794 0.50472
0.92583 0.31794 0.50472
0.98685 0.31794 0.50472
0.00304 0.51826 0.50472
0.05772 0.51826 0.50472
0.16192 0.51826 0.50472
0.31472 0.51826 0.50472
0.52245 0.51826 0.50472
0.73078 0.51826 0.50472
0.85623 0.51826 0.50472
0.92583 0.51826 0.50472
0.98685 0.51826 0.50472
0.00304 0.69133 0.50472
0.05772 0.69133 0.50472
0.16192 0.69133 0.50472
0.31472 0.69133 0.50472
0.52245 0.69133 0.50472
0.73078 0.69133 0.50472
0.85623 0.69133 0.50472
0.92583 0.69133 0.50472
0.98685 0.69133 0.50472
0.00304 0.83380 0.50472
0.05772 0.83380 0.50472
0.16192 0.83380 0.50472
0.31472 0.83380 0.50472
0.52245 0.83380 0.50472
0.73078 0.83380 0.50472
0.85623 0.83380 0.50472
0.92583 0.83380 0.50472
0.98685 0.83380 0.50472
0.00304 0.92541 0.50472
0.05772 0.92541 0.50472
0.16192 0.92541 0.50472
0.31472 0.92541 0.50472
0.52245 0.92541 0.50472
0.73078 0.92541 0.50472
0.85623 0.92541 0.50472
0.92583 0.92541 0.50472
0.98685 0.92541 0.50472
0.00304 0.98809 0.50472
0.05772 0.98809 0.50472
0.16192 0.98809 0.50472
0.31472 0.98809 0.50472
0.52245 0.98809 0.50472
0.73078 0.98809 0.50472
0.85623 0.98809 0.50472
0.92583 0.98809 0.50472
0.98685 0.98809 0.50472
0.00304 0.00316 0.69491
0.05772 0.00316 0.69491
0.16192 0.00316 0.69491
0.31472 0.00316 0.69491
0.52245 0.00316 0.69491
0.73078 0.00316 0.69491
0.85623 0.00316 0.69491
0.92583 0.00316 0.69491
0.98685 0.00316 0.69491
0.00304 0.05929 0.69491
0.05772 0.05929 0.69491
0.16192 0.05929 0.69491
0.31472 0.05929 0.69491
0.52245 0.05929 0.69491
0.73078 0.05929 0.69491
0.85623 0.05929 0.69491
0.92583 0.05929 0.69491
0.98685 0.05929 0.69491
0.00304 0.16300 0.69491
0.05772 0.16300 0.69491
0.16192 0.16300 0.69491
0.31472 0.16300 0.69491
0.52245 0.16300 0.69491
0.73078 0.16300 0.69491
0.85623 0.16300 0.69491
0.92583 0.16300 0.69491
0.98685 0.16300 0.69491
0.00304 0.31794 0.69491
0.05772 0.31794 0.69491
0.16192 0.31794 0.69491
0.31472 0.31794 0.69491
0.52245 0.31794 0.69491
0.73078 0.31794 0.69491
0.85623 0.31794 0.69491
0.92583 0.31794 0.69491
0.98685 0.31794 0.69491
0.00304 0.51826 0.69491
0.05772 0.51826 0.69491
0.16192 0.51826 0.69491
0.31472 0.51826 0.69491
0.52245 0.51826 0.69491
0.73078 0.51826 0.69491
0.85623 0.51826 0.69491
0.92583 0.51826 0.69491
0.98685 0.51826 0.69491
0.00304 0.69133 0.69491
0.05772 0.69133 0.69491
0.16192 0.69133 0.69491
0.31472 0.69133 0.69491
0.52245 0.69133 0.69491
0.73078 0.69133 0.69491
0.85623 0.69133 0.69491
0.92583 0.69133 0.69491
0.98685 0.69133 0.69491
0.00304 0.83380 0.69491
0.05772 0.83380 0.69491
0.16192 0.83380 0.69491
0.31472 0.83380 0.69491
0.52245 0.83380 0.69491
0.73078 0.83380 0.69491
0.85623 0.83380 0.69491
0.92583 0.83380 0.69491
0.98685 0.83380 0.69491
0.00304 0.92541 0.69491
0.05772 0.92541 0.69491
0.16192 0.92541 0.69491
0.31472 0.92541 0.69491
0.52245 0.92541 0.69491
0.73078 0.92541 0.69491
0.85623 0.92541 0.69491
0.92583 0.92541 0.69491
0.98685 0.92541 0.69491
0.00304 0.98809 0.69491
0.05772 0.98809 0.69491
0.16192 0.98809 0.69491
0.31472 0.98809 0.69491
0.52245 0.98809 0.69491
0.73078 0.98809 0.69491
0.85623 0.98809 0.69491
0.92583 0.98809 0.69491
0.98685 0.98809 0.69491
0.00304 0.00316 0.83449
0.05772 0.00316 0.83449
0.16192 0.00316 0.83449
0.31472 0.00316 0.83449
0.52245 0.00316 0.83449
0.73078 0.00316 0.83449
0.85623 0.00316 0.83449
0.92583 0.00316 0.83449
0.98685 0.00316 0.83449
0.00304 0.05929 0.83449
0.05772 0.05929 0.83449
0.16192 0.05929 0.83449
0.31472 0.05929 0.83449
0.52245 0.05929 0.83449
0.73078 0.05929 0.83449
0.85623 0.05929 0.83449
0.92583 0.05929 0.83449
0.98685 0.05929 0.83449
0.00304 0.16300 0.83449
0.05772 0.16300 0.83449
0.16192 0.16300 0.83449
0.31472 0.16300 0.83449
0.52245 0.16300 0.83449
0.73078 0.16300 0.83449
0.85623 0.16300 0.83449
0.92583 0.16300 0.83449
0.98685 0.16300 0.83449
0.00304 0.31794 0.83449
0.05772 0.31794 0.83449
0.16192 0.31794 0.83449
0.31472 0.31794 0.83449
0.52245 0.31794 0.83449
0.73078 0.31794 0.83449
0.85623 0.31794 0.83449
0.92583 0.31794 0.83449
0.98685 0.31794 0.83449
0.00304 0.51826 0.83449
0.05772 0.51826 0.83449
0.16192 0.51826 0.83449
0.31472 0.51826 0.83449
0.52245 0.51826 0.83449
0.73078 0.51826 0.83449
0.85623 0.51826 0.83449
0.92583 0.51826 0.83449
0.98685 0.51826 0.83449
0.00304 0.69133 0.83449
0.05772 0.69133 0.83449
0.16192 0.69133 0.83449
0.31472 0.69133 0.83449
0.52245 0.69133 0.83449
0.73078 0.69133 0.83449
0.85623 0.69133 0.83449
0.92583 0.69133 0.83449
0.98685 0.69133 0.83449
0.00304 0.83380 0.83449
0.05772 0.83380 0.83449
0.16192 0.83380 0.83449
0.31472 0.83380 0.83449
0.52245 0.83380 0.83449
0.73078 0.83380 0.83449
0.85623 0.83380 0.83449
0.92583 0.83380 0.83449
0.98685 0.83380 0.83449
0.00304 0.92541 0.83449
0.05772 0.92541 0.83449
0.16192 0.92541 0.83449
0.31472 0.92541 0.83449
0.52245 0.92541 0.83449
0.73078 0.92541 0.83449
0.85623 0.92541 0.83449
0.92583 0.92541 0.83449
0.98685 0.92541 0.83449
0.00304 0.98809 0.83449
0.05772 0.98809 0.83449
0.16192 0.98809 0.83449
0.31472 0.98809 0.83449
0.52245 0.98809 0.83449
0.73078 0.98809 0.83449
0.85623 0.98809 0.83449
0.92583 0.98809 0.83449
0.98685 0.98809 0.83449
0.00304 0.00316 0.92773
0.05772 0.00316 0.92773
0.16192 0.00316 0.92773
0.31472 0.00316 0.92773
0.52245 0.00316 0.92773
0.73078 0.00316 0.92773
0.85623 0.00316 0.92773
0.92583 0.00316 0.92773
0.98685 0.00316 0.92773
0.00304 0.05929 0.92773
0.05772 0.05929 0.92773
0.16192 0.05929 0.92773
0.31472 0.05929 0.92773
0.52245 0.05929 0.92773
0.73078 0.05929 0.92773
0.85623 0.05929 0.92773
0.92583 0.05929 0.92773
0.98685 0.05929 0.92773
0.00304 0.16300 0.92773
0.05772 0.16300 0.92773
0.16192 0.16300 0.92773
0.31472 0.16300 0.92773
0.52245 0.16300 0.92773
0.73078 0.16300 0.92773
0.85623 0.16300 0.92773
0.92583 0.16300 0.92773
0.98685 0.16300 0.92773
0.00304 0.31794 0.92773
0.05772 0.31794 0.92773
0.16192 0.31794 0.92773
0.31472 0.31794 0.92773
0.52245 0.31794 0.92773
0.73078 0.31794 0.92773
0.85623 0.31794 0.92773
0.92583 0.31794 0.92773
0.98685 0.31794 0.92773
0.00304 0.51826 0.92773
0.05772 0.51826 0.92773
0.16192 0.51826 0.92773
0.31472 0.51826 0.92773
0.52245 0.51826 0.92773
0.73078 0.51826 0.92773
0.85623 0.51826 0.92773
0.92583 0.51826 0.92773
0.98685 0.51826 0.92773
0.00304 0.69133 0.92773
0.05772 0.69133 0.92773
0.16192 0.69133 0.92773
0.31472 0.69133 0.92773
0.52245 0.69133 0.92773
0.73078 0.69133 0.92773
0.85623 0.69133 0.92773
0.92583 0.69133 0.92773
0.98685 0.69133 0.92773
0.00304 0.83380 0.92773
0.05772 0.83380 0.92773
0.16192 0.83380 0.92773
0.31472 0.83380 0.92773
0.52245 0.83380 0.92773
0.73078 0.83380 0.92773
0.85623 0.83380 0.92773
0.92583 0.83380 0.92773
0.98685 0.83380 0.92773
0.00304 0.92541 0.92773
0.05772 0.92541 0.92773
0.16192 0.92541 0.92773
0.31472 0.92541 0.92773
0.52245 0.92541 0.92773
0.73078 0.92541 0.92773
0.85623 0.92541 0.92773
0.92583 0.92541 0.92773
0.98685 0.92541 0.92773
0.00304 0.98809 0.92773
0.05772 0.98809 0.92773
0.16192 0.98809 0.92773
0.31472 0.98809 0.92773
0.52245 0.98809 0.92773
0.73078 0.98809 0.92773
0.85623 0.98809 0.92773
0.92583 0.98809 0.92773
0.98685 0.98809 0.92773
0.00304 0.00316 0.98627
0.05772 0.00316 0.98627
0.16192 0.00316 0.98627
0.31472 0.00316 0.98627
0.52245 0.00316 0.98627
0.73078 0.00316 0.98627
0.85623 0.00316 0.98627
0.92583 0.00316 0.98627
0.98685 0.00316 0.98627
0.00304 0.05929 0.98627
0.05772 0.05929 0.98627
0.16192 0.05929 0.98627
0.31472 0.05929 0.98627
0.52245 0.05929 0.98627
0.73078 0.05929 0.98627
0.85623 0.05929 0.98627
0.92583 0.05929 0.98627
0.98685 0.05929 0.98627
0.00304 0.16300 0.98627
0.05772 0.16300 0.98627
0.16192 0.16300 0.98627
0.31472 0.16300 0.98627
0.52245 0.16300 0.98627
0.73078 0.16300 0.98627
0.85623 0.16300 0.98627
0.92583 0.16300 0.98627
0.98685 0.16300 0.98627
0.00304 0.31794 0.98627
0.05772 0.31794 0.98627
0.16192 0.31794 0.98627
0.31472 0.31794 0.98627
0.52245 0.31794 0.98627
0.73078 0.31794 0.98627
0.85623 0.31794 0.98627
0.92583 0.31794 0.98627
0.98685 0.31794 0.98627
0.00304 0.51826 0.98627
0.05772 0.51826 0.98627
0.16192 0.51826 0.98627
0.31472 0.51826 0.98627
0.52245 0.51826 0.98627
0.73078 0.51826 0.98627
0.85623 0.51826 0.98627
0.92583 0.51826 0.98627
0.98685 0.51826 0.98627
0.00304 0.69133 0.98627
0.05772 0.69133 0.98627
0.16192 0.69133 0.98627
0.31472 0.69133 0.98627
0.52245 0.69133 0.98627
0.73078 0.69133 0.98627
0.85623 0.69133 0.98627
0.92583 0.69133 0.98627
0.98685 0.69133 0.98627
0.00304 0.83380 0.98627
0.05772 0.83380 0.98627
0.16192 0.83380 0.98627
0.31472 0.83380 0.98627
0.52245 0.83380 0.98627
0.73078 0.83380 0.98627
0.85623 0.83380 0.98627
0.92583 0.83380 0.98627
0.98685 0.83380 0.98627
0.00304 0.92541 0.98627
0.05772 0.92541 0.98627
0.16192 0.92541 0.98627
0.31472 0.92541 0.98627
0.52245 0.92541 0.98627
0.73078 0.92541 0.98627
0.85623 0.92541 0.98627
0.92583 0.92541 0.98627
0.98685 0.92541 0.98627
0.00304 0.98809 0.98627
0.05772 0.98809 0.98627
0.16192 0.98809 0.98627
0.31472 0.98809 0.98627
0.52245 0.98809 0.98627
0.73078 0.98809 0.98627
0.85623 0.98809 0.98627
0.92583 0.98809 0.98627
0.98685 0.98809 0.98627
